assets/icons/medium.svg

<?xml version="1.0" encoding="UTF-8"?>
<svg width="26px" height="26px" viewBox="0 0 26 26" version="1.1" xmlns="http://www.w3.org/2000/svg" xmlns:xlink="http://www.w3.org/1999/xlink">
    <!-- Generator: Sketch 52.6 (67491) - http://www.bohemiancoding.com/sketch -->
    <title>Combined Shape</title>
    <desc>Created with Sketch.</desc>
    <g id="Page-1" stroke="none" stroke-width="1" fill="none" fill-rule="evenodd">
        <g id="Desktop-HD" transform="translate(-1014.000000, -1126.000000)" fill="#0030a3">
            <g id="Group-5" transform="translate(1014.000000, 1126.000000)">
                <g id="medium">
                    <g id="Group-6">
                        <path d="M0,0 L26,0 L26,26 L0,26 L0,0 Z M6.20454404,8.69543405 L6.20454404,16.4154419 C6.25205117,16.6939313 6.16426161,16.9784101 5.96806723,17.1817363 L4.13333333,19.4072507 L4.13333333,19.7007251 L9.33582321,19.7007251 L9.33582321,19.4072507 L7.50108932,17.1817363 C7.30345599,16.9787467 7.21023037,16.6961425 7.24830376,16.4154419 L7.24830376,9.73889869 L11.8147526,19.7007251 L12.3447868,19.7007251 L16.2670401,9.73889869 L16.2670401,17.6790124 C16.2670401,17.8909661 16.2670401,17.9317264 16.1284159,18.0703116 L14.7177093,19.4398589 L14.7177093,19.7333333 L21.5673825,19.7333333 L21.5673825,19.4398589 L20.2056023,18.1029199 C20.0853899,18.0112869 20.0257584,17.8606819 20.0506692,17.7116207 L20.0506692,7.88837939 C20.0257584,7.73931816 20.0853899,7.58871303 20.2056023,7.49708015 L21.6,6.16014109 L21.6,5.86666667 L16.7726113,5.86666667 L13.3314659,14.4507936 L9.41736695,5.86666667 L4.3535014,5.86666667 L4.3535014,6.16014109 L5.98437597,8.12478933 C6.14448,8.26909747 6.22624504,8.48102096 6.20454404,8.69543405 Z" id="Combined-Shape"></path>
                    </g>
                </g>
            </g>
        </g>
    </g>
</svg>

<svg width="26" height="26" fill="none" xmlns="http://www.w3.org/2000/svg"><path fill-rule="evenodd" clip-rule="evenodd" d="M0 0h26v26H0V0zm6.205 8.695v7.72a.888.888 0 01-.237.767l-1.835 2.225v.294h5.203v-.294L7.5 17.182a.921.921 0 01-.253-.767V9.74l4.567 9.962h.53l3.922-9.962v7.94c0 .212 0 .253-.139.391l-1.41 1.37v.293h6.85v-.293l-1.362-1.337a.408.408 0 01-.155-.391V7.888a.408.408 0 01.155-.39L21.6 6.16v-.293h-4.827l-3.441 8.584-3.915-8.584H4.354v.293l1.63 1.965c.16.144.242.356.22.57z" fill="#fff"/></svg>
